X:505
T:Morris Grant's Button Box 
C:Joe Buchanan's Scottish Tome - Page 479.0
I:479 0
Z:Carl Allison
C:Charles Esson Jr.
R:Polka
L:1/8
M:2/4
K:G
P:A
D | "G"GG B/A/G/B/ | dd d2 | "C"e/^d/e/f/ g/a/g/e/ | "G"d2 d>B |
"Am"c/d/c/B/ "D"Ad/c/ | "B"B/c/B/A/ "Em"GB | "A"A/B/A/G/ FE | "Am"A2 A>D |
"G"GG B/A/G/B/ | dd d2 | "C"e/d/e/f/ g/a/g/e/ | "G"d2 d2 |
"C"e/^d/e/f/ ge | "D"d/e/d/c/ "G"B2 | "Am"A/B/c/d/ "D"BA | "G"G2 G :|
P:B
[K:C] "C"Ge e/f/e/d/ | c2 cB | "F"Af f/g/f/e/ | "D"d2 dc |
"G"Bg ga | "G"b/a/g/^f/ g>f | "G"g/a/g/f/ "C"ed | "C"e2 e/d/c/A/ |
"C"Ge e/f/e/d/ | "C"c2 cB | "F"Af f/g/f/e/ | "D"d2 d>c |
"G"Bg ga | "G"b/a/g/f/ g>f | "G"g/a/g/f/ ed | "C"c2 c :|
P:C
[K:F] c | "F"A2 A/B/c/d/ | c2 c2 | "Bb"dd f/e/f/d/ | "F"c2 c2 |
"Bb"dd fd | "C"c/d/c/B/ "F"A2 | "C"Gc "G"=Bd | "C"cBAG |
"F"A2 A/B/c/d/ | "F"c2 c2 | "Bb"dd f/e/f/d/ | "F"c2 c2 |
"Bb"dd fd | "D"c/d/c/B/ "F"A2 | "Gm"GA/B/ "C"AG | "F"F2 F :|

